X:1
T:Title
%%score { 1 | 2 }
L:1/8
M:3/4
K:F
V:1 treble nm="Grand Piano"
V:2 bass 
V:1
 z2 z[Q:1/4=94] C F>F | F3 G A>A | A3 A A>A | B3 A G>F |[M:3/8] [CEG]3 | CF>F |[M:3/4] F3 G A>A | %7
 A4 A2 | [DB]3 [DG] F>E |[M:3/8] F3 |[M:7/16] c3/2c>A |[M:3/4] A3 c c>[EB] | [EB]3 [EB] [EB]>[EA] | %13
 [EG]3 [GB] [GB]>A |[M:3/8] A3 | CF>G |[M:3/4] A3 [FA] [FB]>[Fc] | [Fd]4 [DFB]2 | %18
 [CFA]3 [CFA] [CEA]>[B,EG] |[M:3/8] [A,CF]3 |] %20
V:2
 z2 z F, [F,A,C]>[F,A,C] | [F,A,C]3 [F,B,C] [F,CF]>[F,CF] | [F,CF]3 [F,CF] [F,CF]>[F,CF] | %3
 [F,DF]3 [F,CF] [F,B,C]>[F,A,C] |[M:3/8] C,3 | F,[F,A,C]>[F,A,C] | %6
[M:3/4] [F,A,C]3 [F,B,C] [F,CF]>[F,CF] | [F,CF]4 [F,C]2 | [B,,F,]3 [B,,B,] [C,A,C]>[C,G,C] | %9
[M:3/8] [F,A,C]3 |[M:7/16] [F,A,F]3/2[F,A,F]>[F,CF] |[M:3/4] [F,CF]3 [F,A,F] [F,A,F]>[C,G,] | %12
 [C,G,]3 [C,G,] [C,G,]>[C,C] | [C,C]3 [C,C] [C,C]>[F,CF] |[M:3/8] [F,CF]3 | F,[F,A,C]>[F,B,C] | %16
[M:3/4] [F,CF]3 [_E,C] [D,B,]>[C,A,] | [B,,B,]4 B,,2 | C,3 C, C,>C, |[M:3/8] F,3 |] %20

